Newaita-dark/.LP/64/media-playback-pause.svg

<?xml version="1.0" encoding="UTF-8"?>
<svg xmlns="http://www.w3.org/2000/svg" xmlns:xlink="http://www.w3.org/1999/xlink" width="64pt" height="64pt" viewBox="0 0 64 64" version="1.1">
<g id="surface1">
<path style=" stroke:none;fill-rule:nonzero;fill:rgb(25.882354%,25.882354%,25.882354%);fill-opacity:1;" d="M 31.753906 61.359375 C 15.628906 61.359375 2.644531 48.378906 2.644531 32.253906 C 2.644531 16.128906 15.628906 3.144531 31.753906 3.144531 C 47.878906 3.144531 60.859375 16.128906 60.859375 32.253906 C 60.859375 48.378906 47.878906 61.359375 31.753906 61.359375 Z M 31.753906 56.066406 C 44.945312 56.066406 55.566406 45.445312 55.566406 32.253906 C 55.566406 19.058594 44.945312 8.4375 31.753906 8.4375 C 18.558594 8.4375 7.9375 19.058594 7.9375 32.253906 C 7.9375 45.445312 18.558594 56.066406 31.753906 56.066406 Z M 31.753906 56.066406 "/>
<path style=" stroke:none;fill-rule:nonzero;fill:rgb(25.882354%,64.705884%,96.078432%);fill-opacity:1;" d="M 21.167969 19.023438 L 23.816406 19.023438 C 25.277344 19.023438 26.460938 20.207031 26.460938 21.667969 L 26.460938 42.835938 C 26.460938 44.296875 25.277344 45.484375 23.816406 45.484375 L 21.167969 45.484375 C 19.707031 45.484375 18.523438 44.296875 18.523438 42.835938 L 18.523438 21.667969 C 18.523438 20.207031 19.707031 19.023438 21.167969 19.023438 Z M 21.167969 19.023438 "/>
<path style=" stroke:none;fill-rule:nonzero;fill:rgb(25.882354%,64.705884%,96.078432%);fill-opacity:1;" d="M 39.691406 19.023438 L 42.335938 19.023438 C 43.796875 19.023438 44.984375 20.207031 44.984375 21.667969 L 44.984375 42.835938 C 44.984375 44.296875 43.796875 45.484375 42.335938 45.484375 L 39.691406 45.484375 C 38.230469 45.484375 37.046875 44.296875 37.046875 42.835938 L 37.046875 21.667969 C 37.046875 20.207031 38.230469 19.023438 39.691406 19.023438 Z M 39.691406 19.023438 "/>
</g>
</svg>

<svg xmlns="http://www.w3.org/2000/svg" width="64pt" height="64pt" viewBox="0 0 64 64"><path d="M31.754 61.36c-16.125 0-29.11-12.981-29.11-29.106s12.985-29.11 29.11-29.11 29.105 12.985 29.105 29.11a29.041 29.041 0 0 1-29.105 29.105zm0-5.294a23.761 23.761 0 0 0 23.812-23.812A23.762 23.762 0 0 0 31.754 8.438 23.763 23.763 0 0 0 7.937 32.254a23.762 23.762 0 0 0 23.817 23.812zm0 0" fill="#424242"/><path d="M21.168 19.023h2.648a2.644 2.644 0 0 1 2.645 2.645v21.168a2.647 2.647 0 0 1-2.645 2.648h-2.648a2.647 2.647 0 0 1-2.645-2.648V21.668a2.644 2.644 0 0 1 2.645-2.645zm0 0M39.691 19.023h2.645a2.647 2.647 0 0 1 2.648 2.645v21.168a2.65 2.65 0 0 1-2.648 2.648H39.69a2.647 2.647 0 0 1-2.644-2.648V21.668a2.644 2.644 0 0 1 2.644-2.645zm0 0" fill="#42a5f5"/></svg>
